brandFactory_export/3.Masa/Camara videovigilancia_seguridad_3Masa.svg

<?xml version="1.0" encoding="UTF-8"?>
<svg width="24px" height="24px" viewBox="0 0 24 24" version="1.1" xmlns="http://www.w3.org/2000/svg" xmlns:xlink="http://www.w3.org/1999/xlink">
    <title>3.Masa/Camara videovigilancia_seguridad_3Masa</title>
    <g id="Symbols" stroke="none" stroke-width="1" fill="none" fill-rule="evenodd">
        <g id="3.Masa/Camara-videovigilancia_seguridad_3Masa" fill="#5CB615" fill-rule="nonzero">
            <path d="M21.7042017,10.497479 C21.6840336,10.5781513 21.6033613,10.6252101 21.5226891,10.605042 L20.6386555,10.3798319 L21.1495798,8.37647059 L22.0336134,8.60168067 C22.1142857,8.62184874 22.1613445,8.70252101 22.1411765,8.77983193 C22.1411765,8.77647059 21.7042017,10.497479 21.7042017,10.497479 L21.7042017,10.497479 Z M23.394958,7.9092437 C23.1764706,7.5394958 22.8168067,7.27058824 22.4,7.16638655 L21.5159664,6.94117647 L21.7579832,5.98655462 C21.8722689,5.53277311 21.805042,5.06218487 21.5663866,4.65882353 C21.3277311,4.25546218 20.9478992,3.9697479 20.4941176,3.85546218 L5.68739496,0.087394958 C4.75294118,-0.151260504 3.79831933,0.413445378 3.55966387,1.34789916 L3.55966387,1.35462185 L2.01344538,7.43865546 C1.77478992,8.37647059 2.34285714,9.33109244 3.28067227,9.57310924 L10.4033613,11.3848739 L7.86890756,18.5680672 L4.77310924,18.5680672 L4.77310924,15.5260504 C4.77310924,14.5579832 3.98991597,13.7714286 3.02184874,13.7714286 L1.7512605,13.7714286 C0.786554622,13.7714286 0,14.5579832 0,15.5226891 L0,21.902521 C0,22.8705882 0.786554622,23.6537815 1.7512605,23.6537815 L3.01512605,23.6537815 C3.98319328,23.6537815 4.76638655,22.8672269 4.76638655,21.8991597 L4.76638655,20.0403361 L8.38319328,20.0403361 C8.69579832,20.0403361 8.97478992,19.8420168 9.0789916,19.5495798 L11.8319328,11.7478992 L18.0773109,13.3378151 C18.5277311,13.4521008 19.005042,13.3848739 19.405042,13.1462185 C19.805042,12.907563 20.0907563,12.5243697 20.205042,12.0705882 L20.2722689,11.8117647 L21.1563025,12.0369748 C22.0268908,12.2554622 22.9109244,11.7310924 23.1327731,10.8605042 L23.5697479,9.1394958 C23.6806723,8.71932773 23.6134454,8.28235294 23.394958,7.9092437 L23.394958,7.9092437 Z" id="Camara-videovigilancia_seguridad_3Masa"></path>
        </g>
    </g>
</svg>

<svg width="24" height="24" viewBox="0 0 24 24" xmlns="http://www.w3.org/2000/svg"><path d="M21.704 10.497c-.02.081-.1.128-.181.108l-.884-.225.51-2.004.885.226c.08.02.127.1.107.178l-.437 1.717zm1.691-2.588a1.613 1.613 0 00-.995-.743l-.884-.225.242-.954a1.75 1.75 0 00-.192-1.328 1.728 1.728 0 00-1.072-.804L5.687.087a1.75 1.75 0 00-2.127 1.26v.008L2.013 7.439a1.759 1.759 0 001.268 2.134l7.122 1.812-2.534 7.183H4.773v-3.042c0-.968-.783-1.755-1.751-1.755h-1.27c-.965 0-1.752.787-1.752 1.752v6.38c0 .968.787 1.75 1.751 1.75h1.264c.968 0 1.751-.786 1.751-1.754V20.04h3.617a.74.74 0 00.696-.49l2.753-7.802 6.245 1.59a1.75 1.75 0 002.128-1.267l.067-.26.884.226a1.629 1.629 0 001.977-1.176l.437-1.722a1.61 1.61 0 00-.175-1.23z" fill="#5CB615" fill-rule="nonzero"/></svg>
